dist/logos/Metabolic.svg

<svg viewBox="0 0 164 50" fill="none"
    xmlns="http://www.w3.org/2000/svg">
    <path d="M45.1023 0H35.1453C34.3918 0 33.6921 0.43057 33.3692 1.07643L23.4123 20.7212L13.5091 1.13025C13.1862 0.43057 12.4865 0 11.733 0H1.82992C0.80732 0 0 0.80732 0 1.82992V48.1701C0 49.1927 0.80732 50 1.82992 50H13.24C14.2626 50 15.07 49.1927 15.07 48.1701V33.3154L18.5145 40.0969C18.8375 40.6889 19.4295 41.0657 20.1292 41.0657H26.803C27.5027 41.0657 28.0947 40.6889 28.4177 40.0969L31.8622 33.3154V48.1701C31.8622 49.1927 32.6695 50 33.6921 50H45.1023C46.1249 50 46.9322 49.1927 46.9322 48.1701V1.82992C46.8784 0.80732 46.071 0 45.1023 0ZM7.58881 39.9354L13.4015 32.239V46.9322L7.58881 39.9354ZM9.52637 16.8461L12.9171 28.2024L2.26049 21.7438L9.52637 16.8461ZM9.52637 13.4015L2.36814 1.61464H11.3025L9.52637 13.4015ZM8.93434 15.3929L1.61464 20.2906V3.44456L8.93434 15.3929ZM2.15285 23.5199L13.0786 30.1399L6.88913 38.3208L2.15285 23.5199ZM5.70506 39.6663L1.61464 42.6265V26.9107L5.70506 39.6663ZM14.6394 28.5791L11.2487 17.169L22.0129 22.7126L14.6394 28.5791ZM38.3746 32.1851L33.5307 29.4941L35.8988 18.5684L44.7793 17.4919L38.3746 32.1851ZM36.0065 17.0075L35.5221 3.44456L44.6717 15.9311L36.0065 17.0075ZM32.1851 28.5253L24.9731 22.7664L34.2304 19.1066L32.1851 28.5253ZM33.4769 31.2702L37.7826 33.6383L33.4769 45.3714V31.2702ZM38.8052 35.3606L44.5102 48.3315H34.0151L38.8052 35.3606ZM40.0431 34.2842L45.2637 35.1991V46.1249L40.0431 34.2842ZM45.2637 33.6383L39.8278 32.6695L45.2637 20.3445V33.6383ZM45.2637 1.82992V14.1012L36.1679 1.61464H45.1023C45.1561 1.61464 45.2637 1.72228 45.2637 1.82992ZM33.9612 3.55221L34.4456 17.3843L25.0807 21.098L33.9612 3.55221ZM21.5823 20.7212L10.8181 15.1776L12.648 3.06781L21.5823 20.7212ZM1.61464 48.1701V44.5102L6.45856 41.0118L12.5404 48.3315H1.7761C1.72228 48.3315 1.61464 48.2777 1.61464 48.1701ZM15.2314 30.0861L22.1206 24.5963L19.2142 37.944L15.2314 30.0861ZM26.9645 39.3434C26.9107 39.3972 26.8568 39.451 26.803 39.451H20.5059L23.8967 23.8967L31.6469 30.0861L26.9645 39.3434Z" fill="#B52451"></path>
    <path d="M74.0043 32.7772V22.2282L73.8967 22.1744L69.9139 30.5167H68.1378L64.155 22.1744L64.0474 22.2282V32.7772H61.6254V17.7072H64.4779L69.0527 27.2874L73.5737 17.7072H76.4263V32.7772H74.0043Z" fill="#B52451"></path>
    <path d="M85.3068 33.1001C84.2842 33.1001 83.3154 32.8848 82.5081 32.4543C81.7008 32.0237 81.0011 31.3778 80.5167 30.5167C80.0323 29.6555 79.7632 28.5791 79.7632 27.2874C79.7632 26.1033 79.9785 25.0807 80.409 24.1658C80.8396 23.3046 81.4855 22.605 82.2928 22.1206C83.1001 21.6362 84.0151 21.4209 85.0915 21.4209C86.1679 21.4209 87.0829 21.6362 87.7826 22.1206C88.5361 22.605 89.0743 23.197 89.451 24.0043C89.8278 24.8116 89.9892 25.6728 89.9892 26.5877C89.9892 27.1798 89.9354 27.6642 89.8816 27.9871H82.1851V28.0947C82.4542 30.1938 83.5845 31.2164 85.5759 31.2164C86.8138 31.2164 87.944 30.8396 88.9128 30.1399L89.8816 31.7008C88.6975 32.5619 87.1367 33.1001 85.3068 33.1001ZM85.1991 23.197C84.338 23.197 83.6921 23.4661 83.1539 24.0043C82.6157 24.5425 82.3466 25.296 82.239 26.3186V26.4263H87.8364V26.3724C87.7826 25.4037 87.5673 24.6502 87.1367 24.1119C86.6523 23.4661 86.0603 23.197 85.1991 23.197Z" fill="#B52451"></path>
    <path d="M96.7707 33.1001C94.887 33.1001 94.0258 32.239 94.0258 30.409V23.7352H92.2497V21.69H94.0258V20.183L95.1561 18.7836H96.4478V21.69H99.1927V23.7352H96.4478V29.8708C96.4478 30.5705 96.7707 30.9472 97.4166 30.9472C97.8471 30.9472 98.3315 30.8396 98.8697 30.6781L99.4618 32.4004C98.6006 32.831 97.7395 33.1001 96.7707 33.1001Z" fill="#B52451"></path>
    <path d="M120.183 33.1001C118.891 33.1001 117.815 32.6157 117.061 31.6469V31.5931H116.9L116.469 32.7772H114.909V16.8461H117.33V22.8741H117.492C117.869 22.3897 118.353 22.0667 118.891 21.7976C119.429 21.5285 120.022 21.4209 120.667 21.4209C121.582 21.4209 122.336 21.6362 123.036 22.0667C123.735 22.4973 124.273 23.1432 124.65 24.0043C125.027 24.8654 125.242 25.888 125.242 27.0721C125.242 28.31 125.027 29.3864 124.596 30.3014C124.166 31.2164 123.574 31.916 122.82 32.4004C122.067 32.831 121.206 33.1001 120.183 33.1001ZM120.022 23.5199C118.999 23.5199 118.138 24.0043 117.33 25.0269V29.817C117.922 30.6243 118.784 31.0011 119.86 31.0011C120.721 31.0011 121.475 30.6243 122.013 29.9246C122.551 29.225 122.82 28.2562 122.82 27.0721C122.82 25.9419 122.551 25.0807 122.067 24.4349C121.529 23.8428 120.829 23.5199 120.022 23.5199Z" fill="#B52451"></path>
    <path d="M133.369 33.1001C132.4 33.1001 131.432 32.8848 130.624 32.4543C129.763 32.0237 129.117 31.3778 128.579 30.5167C128.095 29.6555 127.826 28.5253 127.826 27.2336C127.826 25.9419 128.095 24.8655 128.579 23.9505C129.064 23.0893 129.763 22.4435 130.624 22.0129C131.485 21.5824 132.4 21.3671 133.369 21.3671C134.338 21.3671 135.307 21.5824 136.114 22.0129C136.975 22.4435 137.621 23.0893 138.159 23.9505C138.644 24.8116 138.913 25.9419 138.913 27.2336C138.913 28.5253 138.644 29.6017 138.159 30.5167C137.675 31.3778 136.975 32.0237 136.114 32.4543C135.307 32.8848 134.338 33.1001 133.369 33.1001ZM133.369 23.5199C132.4 23.5199 131.647 23.8428 131.109 24.4887C130.571 25.1346 130.301 26.0495 130.301 27.2336C130.301 28.4177 130.571 29.3326 131.109 29.9785C131.647 30.6243 132.454 30.9473 133.369 30.9473C134.338 30.9473 135.091 30.6243 135.63 29.9785C136.168 29.3326 136.437 28.4177 136.437 27.2336C136.437 26.0495 136.168 25.1346 135.63 24.4887C135.091 23.8428 134.338 23.5199 133.369 23.5199Z" fill="#B52451"></path>
    <path d="M144.51 16.8461H142.088V32.7772H144.51V16.8461Z" fill="#B52451"></path>
    <path d="M148.439 32.7772V21.69H150.861V32.7234H148.439V32.7772ZM149.623 20.0215C149.193 20.0215 148.87 19.9139 148.547 19.6986C148.278 19.4833 148.116 19.1066 148.116 18.676C148.116 18.1916 148.278 17.8687 148.547 17.6534C148.816 17.4381 149.193 17.2766 149.623 17.2766C150.054 17.2766 150.431 17.3843 150.7 17.6534C150.969 17.8687 151.13 18.2454 151.13 18.676C151.13 19.1066 150.969 19.4833 150.7 19.6986C150.431 19.8601 150.054 20.0215 149.623 20.0215Z" fill="#B52451"></path>
    <path d="M159.634 33.1001C158.558 33.1001 157.643 32.8848 156.781 32.4004C155.92 31.916 155.274 31.2702 154.79 30.3552C154.306 29.4403 154.037 28.4177 154.037 27.1798C154.037 25.9957 154.306 24.9193 154.79 24.0581C155.274 23.197 155.974 22.4973 156.781 22.0667C157.589 21.6362 158.558 21.3671 159.58 21.3671C160.334 21.3671 161.087 21.4747 161.733 21.69C162.379 21.9053 162.971 22.2282 163.455 22.6588L162.487 24.3272C162.11 24.0581 161.679 23.789 161.302 23.6814C160.872 23.5199 160.388 23.4661 159.849 23.4661C158.881 23.4661 158.073 23.789 157.427 24.4349C156.835 25.0807 156.512 25.9957 156.512 27.1798C156.512 28.3638 156.835 29.2788 157.427 29.9785C158.073 30.6782 158.881 31.0011 159.849 31.0011C160.872 31.0011 161.787 30.6782 162.648 29.9785L163.724 31.5393C163.24 31.9699 162.648 32.3466 162.002 32.6157C161.249 32.9386 160.495 33.1001 159.634 33.1001Z" fill="#B52451"></path>
    <path d="M105.059 33.1539C104.037 33.1539 103.122 32.8848 102.422 32.2928C101.722 31.7008 101.346 30.8934 101.346 29.8708C101.346 28.6868 101.83 27.718 102.583 27.1798C103.445 26.5877 104.521 26.3186 105.759 26.3186C106.566 26.3186 107.374 26.4263 108.235 26.5877H108.342V25.5651C108.342 24.1119 107.535 23.3585 105.867 23.3585C104.844 23.3585 103.821 23.6814 102.853 24.3811L101.938 22.8741C102.53 22.3897 103.175 22.0667 103.875 21.7976C104.629 21.5285 105.436 21.4209 106.243 21.4209C107.75 21.4209 108.881 21.7976 109.634 22.4435C110.388 23.1432 110.764 24.1658 110.764 25.4575V30.2476C110.764 31.0011 111.195 31.1625 111.518 31.1625C111.733 31.1625 111.895 31.1625 112.002 31.1625L111.841 32.7234C111.572 32.9386 111.141 33.0463 110.549 33.0463C109.473 33.0463 108.881 32.5619 108.665 31.5931L108.611 31.4316L108.504 31.5393C107.643 32.6157 106.512 33.1539 105.059 33.1539ZM106.082 27.8256C105.382 27.8256 104.79 27.9871 104.36 28.2562C103.875 28.5791 103.66 29.2788 103.66 29.7632C103.66 30.3014 103.875 30.732 104.252 31.0011C104.629 31.2702 105.059 31.3778 105.597 31.3778C106.189 31.3778 106.728 31.2164 107.212 30.9473C107.696 30.6781 108.127 30.3014 108.396 29.817V28.1485H108.342C108.073 28.0947 107.696 27.9871 107.266 27.9333C106.889 27.8256 106.459 27.8256 106.082 27.8256Z" fill="#B52451"></path>
</svg>

<svg width="164" height="50" xmlns="http://www.w3.org/2000/svg"><path d="M45.102 0h-9.957c-.753 0-1.453.43-1.776 1.076l-9.957 19.645-9.903-19.59A1.952 1.952 0 0 0 11.733 0H1.83C.807 0 0 .807 0 1.83v46.34C0 49.193.807 50 1.83 50h11.41c1.023 0 1.83-.807 1.83-1.83V33.315l3.445 6.782c.322.592.915.969 1.614.969h6.674c.7 0 1.292-.377 1.615-.97l3.444-6.78V48.17c0 1.023.808 1.83 1.83 1.83h11.41c1.023 0 1.83-.807 1.83-1.83V1.83C46.878.807 46.071 0 45.102 0ZM7.59 39.935l5.813-7.696v14.693l-5.813-6.997Zm1.937-23.089 3.391 11.356L2.26 21.744l7.266-4.898Zm0-3.444L2.368 1.614h8.934L9.527 13.402Zm-.592 1.99-7.32 4.899V3.445l7.32 11.948ZM2.153 23.52l10.926 6.62-6.19 8.18-4.736-14.8Zm3.552 16.146-4.09 2.96V26.912l4.09 12.755ZM14.64 28.58l-3.39-11.41 10.764 5.544-7.374 5.866Zm23.736 3.606-4.844-2.69 2.368-10.927 8.88-1.076-6.404 14.693Zm-2.368-15.178-.485-13.562 9.15 12.486-8.665 1.077Zm-3.822 11.518-7.212-5.759 9.257-3.66-2.045 9.42Zm1.292 2.745 4.306 2.368-4.306 11.733v-14.1Zm5.328 4.09 5.705 12.971H34.015l4.79-12.97Zm1.238-1.076 5.22.915v10.926l-5.22-11.84Zm5.22-.646-5.435-.968 5.436-12.326v13.294Zm0-31.808V14.1L36.169 1.615h8.934c.054 0 .162.107.162.215ZM33.962 3.552l.485 13.832-9.365 3.714 8.88-17.546Zm-12.379 17.17-10.764-5.544 1.83-12.11 8.934 17.653ZM1.615 48.17v-3.66l4.844-3.498 6.081 7.32H1.776c-.054 0-.161-.054-.161-.162ZM15.23 30.086l6.89-5.49-2.907 13.348-3.983-7.858Zm11.734 9.257c-.054.054-.108.108-.162.108h-6.297l3.39-15.554 7.75 6.19-4.681 9.256ZM74.004 32.777V22.228l-.107-.054-3.983 8.343h-1.776l-3.983-8.343-.108.054v10.55h-2.422v-15.07h2.853l4.575 9.58 4.52-9.58h2.853v15.07h-2.422ZM85.307 33.1c-1.023 0-1.992-.215-2.799-.646a4.92 4.92 0 0 1-1.991-1.937c-.485-.861-.754-1.938-.754-3.23 0-1.184.215-2.206.646-3.121a4.94 4.94 0 0 1 1.884-2.045c.807-.485 1.722-.7 2.798-.7 1.077 0 1.992.215 2.692.7.753.484 1.291 1.076 1.668 1.883.377.808.538 1.669.538 2.584 0 .592-.054 1.076-.107 1.4h-7.697v.107c.27 2.099 1.4 3.121 3.39 3.121a5.615 5.615 0 0 0 3.338-1.076l.969 1.56c-1.184.862-2.745 1.4-4.575 1.4Zm-.108-9.903c-.861 0-1.507.27-2.045.807-.538.538-.807 1.292-.915 2.315v.107h5.597v-.054c-.053-.968-.269-1.722-.7-2.26-.484-.646-1.076-.915-1.937-.915ZM96.77 33.1c-1.883 0-2.744-.861-2.744-2.691v-6.674H92.25V21.69h1.776v-1.507l1.13-1.4h1.292v2.907h2.745v2.045h-2.745v6.136c0 .7.323 1.076.969 1.076.43 0 .915-.107 1.453-.269l.592 1.722c-.861.431-1.722.7-2.691.7ZM120.183 33.1c-1.292 0-2.368-.484-3.122-1.453v-.054h-.161l-.431 1.184h-1.56v-15.93h2.421v6.027h.162c.377-.484.861-.807 1.399-1.076.538-.27 1.131-.377 1.776-.377.915 0 1.669.215 2.369.646.699.43 1.237 1.076 1.614 1.937s.592 1.884.592 3.068c0 1.238-.215 2.314-.646 3.23-.43.914-1.022 1.614-1.776 2.098-.753.431-1.614.7-2.637.7Zm-.161-9.58c-1.023 0-1.884.484-2.692 1.507v4.79c.592.807 1.454 1.184 2.53 1.184.861 0 1.615-.377 2.153-1.076.538-.7.807-1.669.807-2.853 0-1.13-.269-1.991-.753-2.637a2.695 2.695 0 0 0-2.045-.915ZM133.369 33.1c-.969 0-1.937-.215-2.745-.646-.861-.43-1.507-1.076-2.045-1.937-.484-.861-.753-1.992-.753-3.283 0-1.292.269-2.369.753-3.284a4.738 4.738 0 0 1 2.045-1.937 6.056 6.056 0 0 1 2.745-.646c.969 0 1.938.215 2.745.646.861.43 1.507 1.076 2.045 1.938.485.86.754 1.99.754 3.283 0 1.291-.269 2.368-.754 3.283a4.734 4.734 0 0 1-2.045 1.937c-.807.43-1.776.646-2.745.646Zm0-9.58c-.969 0-1.722.323-2.26.969-.538.646-.808 1.56-.808 2.745 0 1.184.27 2.099.808 2.744.538.646 1.345.97 2.26.97.969 0 1.722-.324 2.261-.97.538-.645.807-1.56.807-2.744 0-1.185-.269-2.1-.807-2.745-.539-.646-1.292-.97-2.261-.97ZM144.51 16.846h-2.422v15.931h2.422v-15.93ZM148.439 32.777V21.69h2.422v11.033h-2.422v.054Zm1.184-12.756c-.43 0-.753-.107-1.076-.322-.269-.216-.431-.592-.431-1.023 0-.484.162-.807.431-1.023a1.733 1.733 0 0 1 1.076-.376c.431 0 .808.107 1.077.376.269.216.43.592.43 1.023 0 .43-.161.807-.43 1.023-.269.161-.646.322-1.077.322ZM159.634 33.1c-1.076 0-1.991-.215-2.853-.7a4.866 4.866 0 0 1-1.991-2.045c-.484-.915-.753-1.937-.753-3.175 0-1.184.269-2.26.753-3.122.484-.861 1.184-1.56 1.991-1.991.808-.43 1.777-.7 2.799-.7.754 0 1.507.108 2.153.323a4.922 4.922 0 0 1 1.722.969l-.968 1.668c-.377-.269-.808-.538-1.185-.646-.43-.161-.914-.215-1.453-.215-.968 0-1.776.323-2.422.969-.592.646-.915 1.56-.915 2.745 0 1.184.323 2.099.915 2.799.646.7 1.454 1.022 2.422 1.022 1.023 0 1.938-.323 2.799-1.023l1.076 1.561a6.209 6.209 0 0 1-1.722 1.077 5.824 5.824 0 0 1-2.368.484ZM105.059 33.154c-1.022 0-1.937-.27-2.637-.861-.7-.592-1.076-1.4-1.076-2.422 0-1.184.484-2.153 1.237-2.691.862-.592 1.938-.861 3.176-.861.807 0 1.615.107 2.476.269h.107v-1.023c0-1.453-.807-2.207-2.475-2.207-1.023 0-2.046.323-3.014 1.023l-.915-1.507c.592-.484 1.237-.807 1.937-1.076.754-.27 1.561-.377 2.368-.377 1.507 0 2.638.377 3.391 1.023.754.7 1.13 1.722 1.13 3.014v4.79c0 .753.431.915.754.915h.484l-.161 1.56c-.269.216-.7.323-1.292.323-1.076 0-1.668-.484-1.884-1.453l-.054-.161-.107.107c-.861 1.077-1.992 1.615-3.445 1.615Zm1.023-5.328c-.7 0-1.292.161-1.722.43-.485.323-.7 1.023-.7 1.507 0 .538.215.969.592 1.238.377.27.807.377 1.345.377.592 0 1.131-.162 1.615-.43.484-.27.915-.647 1.184-1.131v-1.669h-.054c-.269-.053-.646-.16-1.076-.215-.377-.107-.807-.107-1.184-.107Z" fill="#B52451"/></svg>
